image/footer-icons/group-1302.svg

<svg width="20" height="20" viewBox="0 0 20 20" fill="none" xmlns="http://www.w3.org/2000/svg">
<path fill-rule="evenodd" clip-rule="evenodd" d="M2.37253 0C11.7713 0 19.4206 8.0758 19.4605 18.0176V18.0182H19.4619V19.0702H19.4507C19.4259 19.3034 19.3273 19.521 19.171 19.6875C19.0147 19.854 18.8099 19.9597 18.5898 19.9875V20H16.8234V19.9979C16.5845 19.9926 16.3555 19.8955 16.1791 19.7248C16.0027 19.5541 15.8908 19.3214 15.8644 19.0699H15.8532V18.0179H15.8632C15.8234 10.1757 9.78783 3.80863 2.37224 3.80863C2.3652 3.80863 2.35816 3.80808 2.35112 3.80754C2.34525 3.80709 2.33939 3.80664 2.33352 3.8065V3.82108H1.34007V3.80923C1.11975 3.78295 0.914278 3.6786 0.757006 3.51312C0.599733 3.34764 0.499888 3.13074 0.473673 2.89762H0.461914V1.02731H0.463922C0.468921 0.774315 0.56056 0.531856 0.721784 0.345056C0.883008 0.158256 1.10284 0.0398394 1.34036 0.011843V0H2.33381V0.00212568C2.33964 0.00198837 2.34542 0.00154062 2.35122 0.00109125C2.35824 0.000546815 2.3653 0 2.37253 0ZM2.37253 7.20618C2.36531 7.20618 2.35825 7.20672 2.35123 7.20727C2.34543 7.20772 2.33965 7.20817 2.33382 7.2083V7.20618H1.34036V7.21802C1.10284 7.24602 0.88301 7.36443 0.721785 7.55123C0.56056 7.73803 0.468921 7.98048 0.463922 8.23348H0.461914V10.1037H0.473673C0.499938 10.3368 0.599799 10.5537 0.757063 10.7192C0.914327 10.8846 1.11977 10.989 1.34008 11.0153V11.0272H2.33353V11.0126C2.3394 11.0128 2.34527 11.0132 2.35113 11.0137C2.35817 11.0142 2.36521 11.0147 2.37225 11.0147C6.03518 11.0147 9.01812 14.1489 9.0577 18.0176H9.04824V19.0695H9.05942C9.08586 19.3209 9.1977 19.5537 9.37412 19.7244C9.55054 19.8951 9.77952 19.9922 10.0185 19.9975V19.9996H11.7845V19.9871C12.0047 19.9593 12.2095 19.8536 12.3658 19.6871C12.522 19.5206 12.6206 19.303 12.6455 19.0698H12.6567V18.0179H12.655C12.6157 12.0487 8.01865 7.20618 2.37253 7.20618ZM3.15281 14.5397C2.82204 14.5397 2.49451 14.6087 2.18893 14.7428C1.88335 14.8768 1.60571 15.0733 1.37188 15.3209C1.13804 15.5686 0.952587 15.8626 0.826111 16.1862C0.699635 16.5097 0.634615 16.8565 0.634766 17.2067C0.634766 17.5568 0.699912 17.9036 0.826484 18.2271C0.953056 18.5506 1.13858 18.8445 1.37245 19.0921C1.60633 19.3397 1.88398 19.5361 2.18955 19.6701C2.49512 19.8041 2.82263 19.8731 3.15338 19.8731C3.48413 19.8731 3.81164 19.8041 4.11721 19.6701C4.42279 19.5361 4.70044 19.3397 4.93431 19.0921C5.16819 18.8445 5.35371 18.5506 5.48028 18.2271C5.60685 17.9036 5.672 17.5568 5.672 17.2067C5.67215 16.8564 5.60709 16.5095 5.48054 16.1859C5.35399 15.8623 5.16844 15.5682 4.93448 15.3205C4.70052 15.0728 4.42275 14.8764 4.11704 14.7424C3.81133 14.6084 3.48367 14.5396 3.15281 14.5397Z" fill="white"/>
</svg>

<svg fill="none" height="20" width="20" xmlns="http://www.w3.org/2000/svg"><path clip-rule="evenodd" d="M2.373 0C11.77 0 19.42 8.076 19.46 18.018h.002v1.052h-.011c-.025.233-.124.451-.28.617s-.361.273-.581.3V20h-1.767v-.002c-.238-.005-.467-.102-.644-.273s-.288-.404-.315-.655h-.01v-1.052h.01c-.04-7.842-6.076-14.21-13.492-14.21h-.02l-.018-.001v.014H1.34V3.81a.962.962 0 01-.583-.296 1.066 1.066 0 01-.283-.615H.462v-1.87h.002C.469.773.56.531.722.344s.38-.305.618-.333V0h.994v.002A.324.324 0 002.373 0zm0 7.206l-.022.001-.017.001v-.002H1.34v.012c-.237.028-.457.146-.618.333s-.253.43-.258.682H.462v1.87h.012c.026.234.126.45.283.616.157.166.363.27.583.296v.012h.994v-.014a.346.346 0 01.038.002c3.663 0 6.646 3.134 6.686 7.003h-.01v1.052h.011c.027.25.139.484.315.654s.406.268.644.274V20h1.766v-.013a.964.964 0 00.582-.3c.156-.166.255-.384.28-.617h.01v-1.052h-.001c-.04-5.97-4.636-10.812-10.282-10.812zm.78 7.334c-.331 0-.658.069-.964.203-.306.134-.583.33-.817.578-.234.248-.42.542-.546.865a2.802 2.802 0 000 2.041c.127.324.313.617.546.865.234.248.512.444.818.578a2.4 2.4 0 001.927 0c.306-.134.583-.33.817-.578.234-.248.42-.541.546-.865a2.817 2.817 0 000-2.041c-.126-.324-.312-.618-.546-.866s-.511-.444-.817-.578-.633-.202-.964-.202z" fill="#fff" fill-rule="evenodd"/></svg>
